outputs/icons/action/update_round.svg

<svg xmlns="http://www.w3.org/2000/svg" width="1200" height="1200" fill="none"><g clip-path="url(#a)"><path fill="#000" d="M549.99 437.512V621.51c0 17.5 9.5 34 24.5 43l156 92.5c18 10.5 41 4.5 51.5-13 10.5-18 5-41-13-51.5l-143.5-85.5V437.012c-.5-20-17.5-37-38-37s-37.5 17-37.5 37.5m500 37.5v-264.5c0-22.5-27-33.5-42.5-17.5l-89 89c-90.5-90.5-219.5-142.5-360.5-130-209.502 19-382.002 187.5-405.002 396.998-30 271 181.5 501 447.002 501 229.5 0 419-172 446.5-394 3.5-30-20-56-50-56-25 0-46 18.5-49 43-21.5 174.5-172 309.5-352.5 307-185.502-2.5-342.002-159-345.002-345-3-194.998 155.5-354.998 350.002-354.998 96.5 0 184 39.5 247.5 102.5l-104.5 104.5c-16 16-5 42.998 17.5 42.998h264.5c14 0 25-10.998 25-24.998"/></g><defs><clipPath id="a"><path fill="#fff" d="M0 0h1200v1200H0z"/></clipPath></defs></svg>

<svg width="1200" height="1200" viewBox="0 0 1200 1200" fill="none" xmlns="http://www.w3.org/2000/svg"><g clip-path="url(#clip0_223_1889)"><path d="M549.99 437.512V621.51C549.99 639.01 559.49 655.51 574.49 664.51L730.49 757.01C748.49 767.51 771.49 761.51 781.99 744.01C792.49 726.01 786.99 703.01 768.99 692.51L625.49 607.01V437.012C624.99 417.012 607.99 400.012 587.49 400.012C566.99 400.012 549.99 417.012 549.99 437.512ZM1049.99 475.012V210.512C1049.99 188.012 1022.99 177.012 1007.49 193.012L918.49 282.012C827.99 191.512 698.99 139.512 557.99 152.012C348.488 171.012 175.988 339.512 152.988 549.01C122.988 820.01 334.488 1050.01 599.99 1050.01C829.49 1050.01 1018.99 878.01 1046.49 656.01C1049.99 626.01 1026.49 600.01 996.49 600.01C971.49 600.01 950.49 618.51 947.49 643.01C925.99 817.51 775.49 952.51 594.99 950.01C409.488 947.51 252.988 791.01 249.988 605.01C246.988 410.012 405.488 250.012 599.99 250.012C696.49 250.012 783.99 289.512 847.49 352.512L742.99 457.012C726.99 473.012 737.99 500.01 760.49 500.01H1024.99C1038.99 500.01 1049.99 489.012 1049.99 475.012Z" fill="#1D1E23"/></g><defs><clipPath id="clip0_223_1889"><path width="24" fill="white" d="M0 0H1200V1200H0V0z"/></clipPath></defs></svg>
